X: 2311
T: Baddeck Gathering, The
R: jig
M: 6/8
K: Dmajor
A|dcd f^ef|d3 d2 A|dcd f^ef|a3 a2 d|
bgb a2 f|gbg a2 b|afa afd|e3 edB|
ABd f^ef|d3 d2 A|dcd f^ef|a3 afd|
bgb a2 f|gbg a2 g|fed Afe|d3 d2||
g|fga dcd|dfa afd|efg =cgc|efg g2 e|
fga d2 A|fga a2 d|efg ABc|d3 d2 g|
f2 a dcd|dfa afd|e2 g =c2 g|ee/f/g gfe|
fga ABc|dcd A2 G|FED Afe|d3 d2||

